icon-themes/breeze_svg/cmd/lc_diagramdata.svg

<svg viewBox="0 0 24 24" xmlns="http://www.w3.org/2000/svg"><path d="m13 3c-.2294.00021-.455446.0113031-.679688.0332031-.063269.00825-.12643.0173658-.189453.0273438-.946436.091188-1.792205.4593819-2.615234.875-.0855.0493-.1687631.1015668-.2519531.1542969-.1093596.0679857-.2168223.1389764-.3222657.2128906-.0548995.0392-.1064262.0822969-.1601562.1230468-.1228751.0911001-.2427311.1862032-.359375.2851563-.3089682.2675469-.593911.5616393-.8515625.8789063-.1022437.128041-.1999601.2596325-.2929687.3945312-.5293336.7049868-.8122127 1.5169761-1.0644532 2.3339844-.0105.0427-.0194969.085896-.0292968.1289062-.0416908.1802017-.0762233.361985-.1035157.5449219-.00039.003-.0019531.0048125-.0019531.0078125h.921875.0898438v-.0019531c.1030764-.7292243.4083814-1.3538737.7109374-1.9824219.0077601-.01305.0155756-.0260705.0234376-.0390625.3409698-.58388.7774462-1.1012161 1.2851562-1.5351563.012324-.0111189.0246944-.0221871.0371094-.0332031.5232111-.4678938 1.1363606-.7422624 1.7402346-1.0195312.02663-.0093.053318-.0184168.080078-.0273438.29449-.10654.599379-.19031.912109-.25.02145-.00533.042943-.010535.064453-.015625.343811-.0615994.696941-.0953031 1.056641-.0957031v5 1h6c.006.439333-.07377.826317-.130859 1.224609-.376552 1.751213-1.437766 2.974711-2.869141 3.962891v1.126953c.349091-.168585.683575-.365878 1-.589844v.017579c.0521-.036301.0975-.0796.148438-.117188.06603-.05092.131144-.103008.195312-.15625 1.503971-1.192819 2.26794-2.782021 2.601562-4.607422.004001-.0304.003813-.061297.007813-.091797.07406-.509895.034506-1.0058191.009766-1.4804685v-.0039063c-.023221-.2286542-.056903-.4541612-.101563-.6757812-.088914-.4797994-.276501-.9415103-.412109-1.3339844l-.001953-.0019531c-.963068-2.2316227-2.86381-3.5899992-5.15625-4.1484375-.115426-.0204865-.231348-.0380702-.347657-.0527344-.10971-.0148-.218818-.0313156-.330078-.0410156-.203871-.0193827-.408495-.0298094-.613281-.03125zm-3.5 7c-3.0383279-.0000006-5.5010781.821207-5.5 1.833984v7.332032c-.0010781 1.012777 2.4616721 1.833985 5.5 1.833984 3.038328.000001 5.501078-.821207 5.5-1.833984v-7.332032c.001078-1.012777-2.461672-1.8339846-5.5-1.833984zm0 .916016c2.534102-.000073 4.587581.411148 4.583984.917968-.001796.506058-2.053695.916088-4.583984.916016-2.5302889.000072-4.5821883-.409958-4.5839844-.916016-.0035974-.50682 2.0498822-.918041 4.5839844-.917968zm-4.5839844 1.927734c1.0175169.51303 2.738956.821818 4.5839844.822266 1.843913-.000014 3.565118-.308027 4.583984-.820313v2.654297c-.001796.506058-2.053695.916088-4.583984.916016-2.5302889.000072-4.5821883-.409958-4.5839844-.916016zm0 3.666016c1.0161663.513773 2.7378397.823337 4.5839844.824218 1.845028-.000448 3.566466-.309236 4.583984-.822265v2.654297c.0036.50682-2.049882.918041-4.583984.917968-2.5341022.000073-4.5875818-.411148-4.5839844-.917968z" fill="#4d4d4d"/></svg>

<svg xmlns="http://www.w3.org/2000/svg" viewBox="0 0 24 24">
 <path 
     style="fill:#4d4d4d" 
     d="M 13 3 C 12.7706 3.00021 12.544554 3.0113031 12.320312 3.0332031 C 12.257043 3.0414531 12.193882 3.0505689 12.130859 3.0605469 C 11.184423 3.1517349 10.338654 3.5199288 9.515625 3.9355469 C 9.430125 3.9848469 9.3468619 4.0371137 9.2636719 4.0898438 C 9.1543123 4.1578295 9.0468496 4.2288202 8.9414062 4.3027344 C 8.8865067 4.3419344 8.83498 4.3850313 8.78125 4.4257812 C 8.6583749 4.5168813 8.5385189 4.6119844 8.421875 4.7109375 C 8.1129068 4.9784844 7.827964 5.2725768 7.5703125 5.5898438 C 7.4680688 5.7178848 7.3703524 5.8494763 7.2773438 5.984375 C 6.7480102 6.6893618 6.4651311 7.5013511 6.2128906 8.3183594 C 6.2023906 8.3610594 6.1933937 8.4042554 6.1835938 8.4472656 C 6.141903 8.6274673 6.1073705 8.8092506 6.0800781 8.9921875 C 6.0796881 8.9951875 6.078125 8.997 6.078125 9 L 7 9 L 7.0898438 9 L 7.0898438 8.9980469 C 7.1929202 8.2688226 7.4982252 7.6441732 7.8007812 7.015625 C 7.8085413 7.002575 7.8163568 6.9895545 7.8242188 6.9765625 C 8.1651886 6.3926825 8.601665 5.8753464 9.109375 5.4414062 C 9.121699 5.4302873 9.1340694 5.4192191 9.1464844 5.4082031 C 9.6696955 4.9403093 10.282845 4.6659407 10.886719 4.3886719 C 10.913349 4.3793719 10.940037 4.3702551 10.966797 4.3613281 C 11.261287 4.2547881 11.566176 4.1710181 11.878906 4.1113281 C 11.900356 4.1059981 11.921849 4.1007931 11.943359 4.0957031 C 12.28717 4.0341037 12.6403 4.0004 13 4 L 13 9 L 13 10 L 19 10 C 19.006 10.439333 18.92623 10.826317 18.869141 11.224609 C 18.492589 12.975822 17.431375 14.19932 16 15.1875 L 16 16.314453 C 16.349091 16.145868 16.683575 15.948575 17 15.724609 L 17 15.742188 C 17.0521 15.705887 17.0975 15.662588 17.148438 15.625 C 17.214468 15.57408 17.279582 15.521992 17.34375 15.46875 C 18.847721 14.275931 19.61169 12.686729 19.945312 10.861328 C 19.949313 10.830928 19.949125 10.800031 19.953125 10.769531 C 20.027185 10.259636 19.987631 9.7637119 19.962891 9.2890625 L 19.962891 9.2851562 C 19.93967 9.056502 19.905988 8.830995 19.861328 8.609375 C 19.772414 8.1295756 19.584827 7.6678647 19.449219 7.2753906 L 19.447266 7.2734375 C 18.484198 5.0418148 16.583456 3.6834383 14.291016 3.125 C 14.17559 3.1045135 14.059668 3.0869298 13.943359 3.0722656 C 13.833649 3.0574656 13.724541 3.04095 13.613281 3.03125 C 13.40941 3.0118673 13.204786 3.0014406 13 3 z M 9.5 10 C 6.4616721 9.9999994 3.9989219 10.821207 4 11.833984 L 4 19.166016 C 3.9989219 20.178793 6.4616721 21.000001 9.5 21 C 12.538328 21.000001 15.001078 20.178793 15 19.166016 L 15 11.833984 C 15.001078 10.821207 12.538328 9.9999994 9.5 10 z M 9.5 10.916016 C 12.034102 10.915943 14.087581 11.327164 14.083984 11.833984 C 14.082188 12.340042 12.030289 12.750072 9.5 12.75 C 6.9697111 12.750072 4.9178117 12.340042 4.9160156 11.833984 C 4.9124182 11.327164 6.9658978 10.915943 9.5 10.916016 z M 4.9160156 12.84375 C 5.9335325 13.35678 7.6549716 13.665568 9.5 13.666016 C 11.343913 13.666002 13.065118 13.357989 14.083984 12.845703 L 14.083984 15.5 C 14.082188 16.006058 12.030289 16.416088 9.5 16.416016 C 6.9697111 16.416088 4.9178117 16.006058 4.9160156 15.5 L 4.9160156 12.84375 z M 4.9160156 16.509766 C 5.9321819 17.023539 7.6538553 17.333103 9.5 17.333984 C 11.345028 17.333536 13.066466 17.024748 14.083984 16.511719 L 14.083984 19.166016 C 14.087584 19.672836 12.034102 20.084057 9.5 20.083984 C 6.9658978 20.084057 4.9124182 19.672836 4.9160156 19.166016 L 4.9160156 16.509766 z "
     />
 </svg>
